Numix-Light/16/status/indicator-keyboard-Sl-2.svg

<?xml version="1.0" encoding="UTF-8" standalone="no"?>
<svg
   xmlns:dc="http://purl.org/dc/elements/1.1/"
   xmlns:cc="http://creativecommons.org/ns#"
   xmlns:rdf="http://www.w3.org/1999/02/22-rdf-syntax-ns#"
   xmlns:svg="http://www.w3.org/2000/svg"
   xmlns="http://www.w3.org/2000/svg"
   xmlns:sodipodi="http://sodipodi.sourceforge.net/DTD/sodipodi-0.dtd"
   xmlns:inkscape="http://www.inkscape.org/namespaces/inkscape"
   viewBox="0 0 16 16"
   id="svg2"
   version="1.1"
   inkscape:version="0.91 r13725"
   sodipodi:docname="indicator-keyboard-Sl-2.svg">
  <metadata
     id="metadata14">
    <rdf:RDF>
      <cc:Work
         rdf:about="">
        <dc:format>image/svg+xml</dc:format>
        <dc:type
           rdf:resource="http://purl.org/dc/dcmitype/StillImage" />
      </cc:Work>
    </rdf:RDF>
  </metadata>
  <defs
     id="defs12" />
  <sodipodi:namedview
     pagecolor="#ffffff"
     bordercolor="#666666"
     borderopacity="1"
     objecttolerance="10"
     gridtolerance="10"
     guidetolerance="10"
     inkscape:pageopacity="0"
     inkscape:pageshadow="2"
     inkscape:window-width="640"
     inkscape:window-height="480"
     id="namedview10"
     showgrid="false"
     inkscape:zoom="14.75"
     inkscape:cx="8"
     inkscape:cy="8"
     inkscape:window-x="65"
     inkscape:window-y="24"
     inkscape:window-maximized="0"
     inkscape:current-layer="svg2" />
  <path
     style="fill:#353535;fill-opacity:1"
     d="M 1.5996094 0 C 0.71320937 2.9605947e-16 0 0.71320937 0 1.5996094 L 0 14.400391 C 2.9605947e-16 15.286791 0.71320937 16 1.5996094 16 L 14.400391 16 C 15.286791 16 16 15.286791 16 14.400391 L 16 1.5996094 C 16 0.71320937 15.286791 0 14.400391 0 L 1.5996094 0 z M 8.9707031 4.1113281 L 8.9707031 9.9628906 C 8.9707031 10.106891 8.9818594 10.2225 9.0058594 10.3125 C 9.0358594 10.3965 9.0788125 10.465531 9.1328125 10.519531 C 9.1868125 10.567531 9.2558437 10.604906 9.3398438 10.628906 C 9.4298437 10.652906 9.5342969 10.673406 9.6542969 10.691406 L 9.5742188 11.177734 C 9.3762188 11.171734 9.2007812 11.143703 9.0507812 11.095703 C 8.9067812 11.053703 8.7855938 10.988438 8.6835938 10.898438 C 8.5875938 10.802438 8.5110313 10.681109 8.4570312 10.537109 C 8.4090313 10.387109 8.3847656 10.202469 8.3847656 9.9804688 L 8.3847656 4.2207031 L 8.9707031 4.1113281 z M 5.4472656 4.7246094 C 5.6152656 4.7246094 5.7794063 4.7357656 5.9414062 4.7597656 C 6.1034062 4.7837656 6.252625 4.817375 6.390625 4.859375 C 6.534625 4.895375 6.6652969 4.936375 6.7792969 4.984375 C 6.8992969 5.032375 6.9981719 5.0846719 7.0761719 5.1386719 L 6.859375 5.6503906 C 6.685375 5.5303906 6.4727031 5.4352813 6.2207031 5.3632812 C 5.9747031 5.2912813 5.7079219 5.2558594 5.4199219 5.2558594 C 5.2219219 5.2558594 5.0390938 5.2763594 4.8710938 5.3183594 C 4.7090938 5.3543594 4.5672656 5.4178125 4.4472656 5.5078125 C 4.3272656 5.5918125 4.2321563 5.6980781 4.1601562 5.8300781 C 4.0941563 5.9620781 4.0605469 6.1225938 4.0605469 6.3085938 C 4.0605469 6.5005937 4.0959687 6.6629219 4.1679688 6.7949219 C 4.2399688 6.9269219 4.3388437 7.0407187 4.4648438 7.1367188 C 4.5968437 7.2327187 4.7498281 7.3184844 4.9238281 7.3964844 C 5.0978281 7.4744844 5.2881875 7.556625 5.4921875 7.640625 C 5.7381875 7.742625 5.9675937 7.8433125 6.1835938 7.9453125 C 6.4055938 8.0473125 6.5977656 8.1686406 6.7597656 8.3066406 C 6.9217656 8.4446406 7.0524375 8.6125469 7.1484375 8.8105469 C 7.2444375 9.0085469 7.2910156 9.2510625 7.2910156 9.5390625 C 7.2910156 10.103063 7.0932656 10.526594 6.6972656 10.808594 C 6.3072656 11.090594 5.7774688 11.230469 5.1054688 11.230469 C 4.8654687 11.230469 4.6452656 11.215547 4.4472656 11.185547 C 4.2492656 11.155547 4.0720156 11.120125 3.9160156 11.078125 C 3.7600156 11.030125 3.6294844 10.981594 3.5214844 10.933594 C 3.4134844 10.885594 3.3275781 10.844594 3.2675781 10.808594 L 3.4667969 10.277344 C 3.5267969 10.313344 3.6069844 10.354344 3.7089844 10.402344 C 3.8109844 10.450344 3.9323125 10.498875 4.0703125 10.546875 C 4.2083125 10.588875 4.3631094 10.624297 4.5371094 10.654297 C 4.7111094 10.684297 4.9032813 10.699219 5.1132812 10.699219 C 5.5992813 10.699219 5.9780469 10.613453 6.2480469 10.439453 C 6.5180469 10.259453 6.6523437 9.970219 6.6523438 9.5742188 C 6.6523438 9.3462187 6.6075781 9.1578125 6.5175781 9.0078125 C 6.4335781 8.8518125 6.3197812 8.7230938 6.1757812 8.6210938 C 6.0317812 8.5130937 5.8656875 8.4235625 5.6796875 8.3515625 C 5.4936875 8.2735625 5.2997031 8.1914219 5.0957031 8.1074219 C 4.8377031 8.0054219 4.6063437 7.9009687 4.4023438 7.7929688 C 4.1983438 7.6849688 4.0248594 7.5655937 3.8808594 7.4335938 C 3.7368594 7.2955937 3.624875 7.1388438 3.546875 6.9648438 C 3.474875 6.7908437 3.4394531 6.5875156 3.4394531 6.3535156 C 3.4394531 5.8195156 3.6167031 5.4146719 3.9707031 5.1386719 C 4.3247031 4.8626719 4.8172656 4.7246094 5.4472656 4.7246094 z M 11.404297 8.7539062 C 11.798197 8.7539062 12.094069 8.851875 12.292969 9.046875 C 12.491869 9.237975 12.591797 9.5044563 12.591797 9.8476562 C 12.591797 9.9997563 12.564366 10.14475 12.509766 10.28125 C 12.455166 10.41385 12.380709 10.543169 12.287109 10.667969 C 12.197409 10.792769 12.093563 10.912297 11.976562 11.029297 C 11.859563 11.146297 11.740041 11.263859 11.619141 11.380859 C 11.517741 11.478359 11.419766 11.578288 11.322266 11.679688 C 11.228666 11.777187 11.142453 11.877116 11.064453 11.978516 C 10.990353 12.076016 10.929612 12.172031 10.882812 12.269531 C 10.839913 12.363131 10.818359 12.457181 10.818359 12.550781 L 10.818359 12.5625 L 12.732422 12.5625 L 12.732422 12.896484 L 10.396484 12.896484 C 10.396484 12.888684 10.394492 12.874969 10.390625 12.855469 L 10.390625 12.755859 C 10.390625 12.572559 10.423934 12.402094 10.490234 12.246094 C 10.556534 12.086194 10.640787 11.937275 10.742188 11.796875 C 10.847487 11.656475 10.963091 11.525197 11.087891 11.404297 C 11.216591 11.283397 11.340031 11.165834 11.457031 11.052734 C 11.554531 10.959134 11.644669 10.869003 11.730469 10.783203 C 11.820169 10.693503 11.898544 10.603366 11.964844 10.509766 C 12.031144 10.416166 12.084047 10.316237 12.123047 10.210938 C 12.162047 10.105638 12.181641 9.9900344 12.181641 9.8652344 C 12.181641 9.5922344 12.107184 9.39825 11.958984 9.28125 C 11.814684 9.16035 11.632456 9.0996094 11.410156 9.0996094 C 11.285356 9.0996094 11.173672 9.1152844 11.076172 9.1464844 C 10.978672 9.1776844 10.892459 9.2149125 10.818359 9.2578125 C 10.748159 9.2968125 10.687419 9.3379594 10.636719 9.3808594 C 10.586019 9.4237594 10.548791 9.4570688 10.525391 9.4804688 L 10.328125 9.2167969 C 10.351525 9.1894969 10.390719 9.1503094 10.449219 9.0996094 C 10.511619 9.0450094 10.588034 8.9921062 10.677734 8.9414062 C 10.771334 8.8907063 10.8791 8.8476 11 8.8125 C 11.1209 8.7735 11.256097 8.7539063 11.404297 8.7539062 z "
     id="path4" />
</svg>

<svg xmlns="http://www.w3.org/2000/svg" viewBox="0 0 16 16">
 <path d="m 1.6 0 c -0.886 0 -1.6 0.713 -1.6 1.6 l 0 12.801 c 0 0.886 0.713 1.6 1.6 1.6 l 12.801 0 c 0.886 0 1.6 -0.713 1.6 -1.6 l 0 -12.801 c 0 -0.886 -0.713 -1.6 -1.6 -1.6 l -12.801 0 z m 7.371 4.111 l 0 5.852 c 0 0.144 0.011 0.26 0.035 0.35 c 0.03 0.084 0.073 0.153 0.127 0.207 c 0.054 0.048 0.123 0.085 0.207 0.109 c 0.09 0.024 0.194 0.044 0.314 0.063 l -0.08 0.486 c -0.198 -0.006 -0.373 -0.034 -0.523 -0.082 c -0.144 -0.042 -0.265 -0.107 -0.367 -0.197 c -0.096 -0.096 -0.173 -0.217 -0.227 -0.361 c -0.048 -0.15 -0.072 -0.335 -0.072 -0.557 l 0 -5.76 l 0.586 -0.109 z m -3.523 0.613 c 0.168 0 0.332 0.011 0.494 0.035 c 0.162 0.024 0.311 0.058 0.449 0.1 c 0.144 0.036 0.275 0.077 0.389 0.125 c 0.12 0.048 0.219 0.1 0.297 0.154 l -0.217 0.512 c -0.174 -0.12 -0.387 -0.215 -0.639 -0.287 c -0.246 -0.072 -0.513 -0.107 -0.801 -0.107 c -0.198 0 -0.381 0.02 -0.549 0.063 c -0.162 0.036 -0.304 0.099 -0.424 0.189 c -0.12 0.084 -0.215 0.19 -0.287 0.322 c -0.066 0.132 -0.1 0.293 -0.1 0.479 c 0 0.192 0.035 0.354 0.107 0.486 c 0.072 0.132 0.171 0.246 0.297 0.342 c 0.132 0.096 0.285 0.182 0.459 0.26 c 0.174 0.078 0.364 0.16 0.568 0.244 c 0.246 0.102 0.475 0.203 0.691 0.305 c 0.222 0.102 0.414 0.223 0.576 0.361 c 0.162 0.138 0.293 0.306 0.389 0.504 c 0.096 0.198 0.143 0.441 0.143 0.729 c 0 0.564 -0.198 0.988 -0.594 1.27 c -0.39 0.282 -0.92 0.422 -1.592 0.422 c -0.24 0 -0.46 -0.015 -0.658 -0.045 c -0.198 -0.03 -0.375 -0.065 -0.531 -0.107 c -0.156 -0.048 -0.287 -0.097 -0.395 -0.145 c -0.108 -0.048 -0.194 -0.089 -0.254 -0.125 l 0.199 -0.531 c 0.06 0.036 0.14 0.077 0.242 0.125 c 0.102 0.048 0.223 0.097 0.361 0.145 c 0.138 0.042 0.293 0.077 0.467 0.107 c 0.174 0.03 0.366 0.045 0.576 0.045 c 0.486 0 0.865 -0.086 1.135 -0.26 c 0.27 -0.18 0.404 -0.469 0.404 -0.865 c 0 -0.228 -0.045 -0.416 -0.135 -0.566 c -0.084 -0.156 -0.198 -0.285 -0.342 -0.387 c -0.144 -0.108 -0.31 -0.198 -0.496 -0.27 c -0.186 -0.078 -0.38 -0.16 -0.584 -0.244 c -0.258 -0.102 -0.489 -0.206 -0.693 -0.314 c -0.204 -0.108 -0.377 -0.227 -0.521 -0.359 c -0.144 -0.138 -0.256 -0.295 -0.334 -0.469 c -0.072 -0.174 -0.107 -0.377 -0.107 -0.611 c 0 -0.534 0.177 -0.939 0.531 -1.215 c 0.354 -0.276 0.847 -0.414 1.477 -0.414 z m 5.957 4.03 c 0.394 0 0.69 0.098 0.889 0.293 c 0.199 0.191 0.299 0.458 0.299 0.801 c 0 0.152 -0.027 0.297 -0.082 0.434 c -0.055 0.133 -0.129 0.262 -0.223 0.387 c -0.09 0.125 -0.194 0.244 -0.311 0.361 c -0.117 0.117 -0.237 0.235 -0.357 0.352 c -0.101 0.098 -0.199 0.197 -0.297 0.299 c -0.094 0.097 -0.18 0.197 -0.258 0.299 c -0.074 0.097 -0.135 0.194 -0.182 0.291 c -0.043 0.094 -0.064 0.188 -0.064 0.281 l 0 0.012 l 1.914 0 l 0 0.334 l -2.336 0 c 0 -0.008 -0.002 -0.022 -0.006 -0.041 l 0 -0.1 c 0 -0.183 0.033 -0.354 0.1 -0.51 c 0.066 -0.16 0.151 -0.309 0.252 -0.449 c 0.105 -0.14 0.221 -0.272 0.346 -0.393 c 0.129 -0.121 0.252 -0.238 0.369 -0.352 c 0.098 -0.094 0.188 -0.184 0.273 -0.27 c 0.09 -0.09 0.168 -0.18 0.234 -0.273 c 0.066 -0.094 0.119 -0.194 0.158 -0.299 c 0.039 -0.105 0.059 -0.221 0.059 -0.346 c 0 -0.273 -0.074 -0.467 -0.223 -0.584 c -0.144 -0.121 -0.327 -0.182 -0.549 -0.182 c -0.125 0 -0.236 0.016 -0.334 0.047 c -0.098 0.031 -0.184 0.068 -0.258 0.111 c -0.07 0.039 -0.131 0.08 -0.182 0.123 c -0.051 0.043 -0.088 0.076 -0.111 0.1 l -0.197 -0.264 c 0.023 -0.027 0.063 -0.066 0.121 -0.117 c 0.062 -0.055 0.139 -0.108 0.229 -0.158 c 0.094 -0.051 0.201 -0.094 0.322 -0.129 c 0.121 -0.039 0.256 -0.059 0.404 -0.059 z" style="fill:#353535;fill-opacity:1"/>
</svg>
